X:1
T:Humors of Carrigaholt, The
R:reel
M:4/4
L:1/8
R:reel
K:D
fe|dcAF GBAG|F2 DE FGAB|=cBAF G2 FG|1 Addc dg:|2 Addc d2|]
ze|fdde fdaf|edcd efge|fd (3ddd fdgf|edcd e3 g|
fdde fdaf|edcd efge|agfa gfec|dfec d2:|
